X: 23418
T: Les Frères Pigeon
R: reel
M: 4/4
K: Bminor
|:Bcdc (3BcB F2|Bcdc (3BcB F2|B3c d3B|c2(3fff c2(3fff|
Bcdc (3BcB F2|Bcdc (3BcB F2|f3g (3fgf e2|1 ~d2~c2 B2F2:|2 ~d2~c2 B2B2||
|:A2 a4 f2|d4 d2 (3BcB|Affa ~f2d2|A3A ABAF|G3A e2{d}e2|
{d}e4 ~A2ce|1 ~a2 ~g2 e2c2|~f2~d2 ~c2~B2:|2 a2g2 B2c2|dfec d2F2||

